X:1
T:Weavers March
O:No 1 Page 1 William Clarke of Feltwell  MS 1858
M:2/2
L:1/8
K:G
dedc B2cd|e2e2"^tr"d4|efgf e2e2|c'2b2"^tr"a4|
dedc B2cd|e2e2d4|efge f2ga|"^tr"a4g4:|
|:b2c'b a2ba|gbag"^tr"f2ff|efgf e2e2|
c'2b2"^tr"a4|dedc B2cd|e2e2"^tr"d4|efge f2ga|"^tr"a4g4:|

